!!!!SEGMENT: pl-wn--sd-xvi-qu-273--002_gomolka-mikolaj--co-za-przyczyna-tego-zamieszania.krn
!!!cenid: 15xx:207
!!!COM: Gomółka, Mikołaj
!!!COM-rismid: pe30013343
!!!CDT: ~1535->1591/04/30
!!!CNT: Polish
!!!GTL: Melodiae na psalterz polski
!!!OTL: II. Co za przyczyna tego zamieszania?
!!!PDT: 1580
!!!AGN: Sacred
!!!SMS-siglum: PL-Wn
!!!SMS-shelfmark: SD XVI.Qu.273
!!!SMS-shelfwork: 002 G
!!!NIFC-rismid:
**kern	**text	**kern	**text	**kern	**text	**kern	**text
*part4	*part4	*part3	*part3	*part2	*part2	*part1	*part1
*staff4	*staff4	*staff3	*staff3	*staff2	*staff2	*staff1	*staff1
*I"BASSUS.	*	*I"TENOR.	*	*I"ALTVS.	*	*I"CANTVS.	*
*clefF3	*	*clefC3	*	*clefC3	*	*clefC1	*
*k[]	*	*k[]	*	*k[]	*	*k[]	*
*a:	*	*a:	*	*a:	*	*a:	*
*M2/1	*	*M2/1	*	*M2/1	*	*M2/1	*
*met(C|)	*	*met(C|)	*	*met(C|)	*	*met(C|)	*
*iiif:2v	*	*iiif:2v	*	*iiif:2v	*	*iiif:2v	*
*xywh:805,5481,5275,1281	*	*xywh:834,4149,5221,1313	*	*xywh:855,2890,5199,1259	*	*xywh:780,1210,5285,1711	*
=1-	=1-	=1-	=1-	=1-	=1-	=1-	=1-
1A	Co	1c	Co	1e	Co	1a	Co
1.F	ӡá	2.c/	ӡá	1.f	ӡá	2.a	ӡá
.	.	4B	.	.	.	4g/	.
=2-	=2-	=2-	=2-	=2-	=2-	=2-	=2-
.	.	4c/	.	.	.	4a	.
.	.	4d\	.	.	.	4b	.
2C	prӡy-	2e	prӡy-	4e	prӡy-	1cc	prӡy-
.	.	.	.	4f	.	.	.
1G	-cӡy-	1d	-cӡy-	2.g	-cӡy-	.	.
.	.	.	.	.	.	2b	-cӡy-
.	.	.	.	4f	.	.	.
=3-	=3-	=3-	=3-	=3-	=3-	=3-	=3-
2C	-ná	2c/	-ná	4e	-ná	2cc	-ná
.	.	.	.	4d	.	.	.
1c	te-	1e	te-	2.c/	te-	1g	te-
.	.	.	.	4d	.	.	.
2A	-go	2c/	-go	2e	-go	4cc	-go
.	.	.	.	.	.	4b	.
=4-	=4-	=4-	=4-	=4-	=4-	=4-	=4-
4c	ӡá-	4e	ӡá-	2A	ӡá-	4a\	zá-
4B	.	4d	.	.	.	4g/	.
4A	-mié-	4c/	-mié-	2d	-mié-	1g	-mié-
4G	.	4B	.	.	.	.	.
1A	-ʃᴣá-	4c/	-ʃᴣá-	2c/	-ʃᴣá-	.	.
.	.	2d	.	.	.	.	.
.	.	.	.	2A	.	2f	-ʃᴣá-
.	.	4c/	.	.	.	.	.
=5-	=5-	=5-	=5-	=5-	=5-	=5-	=5-
2G	-nia?	2d	-nia?	2B	-nia?	2g/	-nia?
2E	Co	2G	Co	2e	Co	2b	Co
2D#X	wʒ́ię-	1B	wʒ́ię_li	2f#X	wʒ́ię-	2.b	wʒ́ię-
2E	-li	.	.	2g	-li	.	.
.	.	.	.	.	.	4cc	-li
=6-	=6-	=6-	=6-	=6-	=6-	=6-	=6-
2F#X/	prӡed	2A	prӡed	2a	prӡed	2dd	prӡed
2G	śię	2B	śię	4g	śię	2dd	śię
.	.	.	.	4fny	.	.	.
2A	lu-	2c/	lu-	2.e	lu-	2cc	lu-
2AA	-dʒ́ie	2c/	-dʒ́ie	.	.	2a	-dʒ́ie
.	.	.	.	4f	-dʒ́ie	.	.
!!LO:PB:g=original
=7-	=7-	=7-	=7-	=7-	=7-	=7-	=7-
*iiif:3r	*	*iiif:3r	*	*iiif:3r	*	*iiif:3r	*
*xywh:651,5309,5177,1487	*	*xywh:686,4082,5165,1511	*	*xywh:744,2797,5082,1487	*	*xywh:685,1190,5201,1832	*
2E	nie-	2B	nie-	2g	nie-	2b	nie-
2G	-o-	2B	-o-	1e	-o-	4a	-o-
.	.	.	.	.	.	4g	.
1Fny	-bácӡ-	2.A	-bácӡ-	.	.	1a	-bácӡ-
.	.	.	.	2d	-bácӡ-	.	.
.	.	4B	.	.	.	.	.
=8-	=8-	=8-	=8-	=8-	=8-	=8-	=8-
2C	-ni:	4c/	-ni:	2e	-ni?	2g/	-ni?
.	.	4d\	.	.	.	.	.
2c	Kśią-	2e	Kśią-	2.e	Kśią-	2g/	Kśią-
2c	-(ʒ̇e-	2e	-ʒ̇e-	.	.	2a	-(ʒ̇e-
.	.	.	.	4f	.	.	.
2B	-ta)	1d	-(ta)	2g	-(ʒ̇e-	2b	-ta)
=9-	=9-	=9-	=9-	=9-	=9-	=9-	=9-
1A	moʒ̇-	.	.	2g	-ta)	1cc	moʒ̇-
.	.	2c/	mo(ʒ̇-	2f	moʒ̇-	.	.
2G	-ne	2d	-ne)	2g	-ne	2b	-ne
2c	y	2e	y	2g	y	2cc	i
=10-	=10-	=10-	=10-	=10-	=10-	=10-	=10-
2G	ťró-	2d	ťró-	2g	ťró-	2dd	ťró-
2A	-(lo-	2c/	-(lo-	2e	-(lo-	2cc	-(lo-
2F/	-wie)	2f	-wie)	2a	-wie)	2cc	-wie)
2G	znácӡ-	2d	znacӡ-	4g	znácӡ-	2b	ӡnácӡ-
.	.	.	.	4f	.	.	.
=11-	=11-	=11-	=11-	=11-	=11-	=11-	=11-
2C	-ni	4c	-ni	2e	-ni	2cc	-ni
.	.	4d	.	.	.	.	.
2AA	Scho-	2e	Scho-	2a	Scho-	2cc	Scho-
2C	-dӡą	2e	-dӡą	2g	-dӡą	2cc	-dӡą
2Dny	ʃye	2.d	ʃye	1f	ʃye	2b	ʃye
=12-	=12-	=12-	=12-	=12-	=12-	=12-	=12-
1F	w rá-	.	.	.	.	1a	w rá-
.	.	4c	w rá-	.	.	.	.
.	.	4B	.	2d	w rá-	.	.
.	.	4A	.	.	.	.	.
2E	-de	2B	de	2e	-de	2g/	-de
1A	chći-	1A	chci-	1e	chći-	1cc	chći-
=13-	=13-	=13-	=13-	=13-	=13-	=13-	=13-
.	.	.	.	.	.	.	.
2G	-wi	2B	wi-	2e	-wi	2b	-wi
2F/	-ro	2c/	ro-	2f	ro	2a	ro-
2D	-ӡer	4d	-ӡer-	2f	-ӡer-	1a	-ӡer-
.	.	4c	.	.	.	.	.
=14-	=14-	=14-	=14-	=14-	=14-	=14-	=14-
1E	-wá	4B	.	2.e	-wá-	.	.
.	.	4A	.	.	.	.	.
.	.	2B	-wá-	.	.	2g/	-wá-
.	.	.	.	4d	.	.	.
1AA/ll;	-nia-	1A/l;	-nia-	1cll;	-nia-	1all;	-nia.
==	==	==	==	==	==	==	==
*-	*-	*-	*-	*-	*-	*-	*-
!!!system-decoration: s1,s2,s3,s4
!!!RDF**kern: l = terminal long
!!!ENC: Anna Matuszewska
!!!END: data 2020-02-04
!!!EED: Craig Stuart Sapp
!!!EEV: 2021/12/08
!!!URL-scan: https://polona.pl/item/melodiae-na-psalterz-polski,Nzk3MTM4ODQ/19 Scan on Polona
!!!IIIF: https://polona.pl/iiif/item/Nzk3MTM4ODQ/manifest.json
!!!IIIF-2v: https://zas.bn.org.pl/iiif/79713884/79933152.tif
!!!IIIF-3r: https://zas.bn.org.pl/iiif/79713884/79933228.tif
